bicons/scalable/categories/mood-level-red.svg

<?xml version="1.0" encoding="UTF-8" standalone="no"?>
<!-- Created with Inkscape (http://www.inkscape.org/) -->

<svg
   xmlns:dc="http://purl.org/dc/elements/1.1/"
   xmlns:cc="http://creativecommons.org/ns#"
   xmlns:rdf="http://www.w3.org/1999/02/22-rdf-syntax-ns#"
   xmlns:svg="http://www.w3.org/2000/svg"
   xmlns="http://www.w3.org/2000/svg"
   xmlns:xlink="http://www.w3.org/1999/xlink"
   xmlns:sodipodi="http://sodipodi.sourceforge.net/DTD/sodipodi-0.dtd"
   xmlns:inkscape="http://www.inkscape.org/namespaces/inkscape"
   width="210mm"
   height="297mm"
   viewBox="0 0 744.09448819 1052.3622047"
   id="svg2"
   version="1.1"
   inkscape:version="0.91 r13725"
   sodipodi:docname="mood-level-red.svg"
   inkscape:export-filename="C:\Users\johannes\Documents\Arbeit\RRZE\bi-con\bi-con\scalable\documents\document.png"
   inkscape:export-xdpi="4"
   inkscape:export-ydpi="4">
  <defs
     id="defs4">
    <linearGradient
       inkscape:collect="always"
       id="linearGradient4176">
      <stop
         style="stop-color:#5a6578;stop-opacity:1;"
         offset="0"
         id="stop4178" />
      <stop
         style="stop-color:#9397a2;stop-opacity:1"
         offset="1"
         id="stop4180" />
    </linearGradient>
    <linearGradient
       id="linearGradient2224">
      <stop
         id="stop2226"
         offset="0"
         style="stop-color:#7c7c7c;stop-opacity:1;" />
      <stop
         id="stop2228"
         offset="1"
         style="stop-color:#b8b8b8;stop-opacity:1;" />
    </linearGradient>
    <linearGradient
       id="linearGradient15218">
      <stop
         id="stop15220"
         offset="0"
         style="stop-color:#eeeeef;stop-opacity:1;" />
      <stop
         id="stop2736"
         offset="0.59928656"
         style="stop-color:#d3d7cf;stop-opacity:1;" />
      <stop
         id="stop2738"
         offset="0.82758623"
         style="stop-color:#ffffff;stop-opacity:1;" />
      <stop
         id="stop15222"
         offset="1"
         style="stop-color:#d3d7cf;stop-opacity:1;" />
    </linearGradient>
    <pattern
       y="0"
       x="0"
       height="6"
       width="6"
       patternUnits="userSpaceOnUse"
       id="EMFhbasepattern" />
    <linearGradient
       inkscape:collect="always"
       xlink:href="#linearGradient4176"
       id="linearGradient4182"
       x1="267.44257"
       y1="649.30225"
       x2="517.0686"
       y2="387.07214"
       gradientUnits="userSpaceOnUse"
       gradientTransform="matrix(1.0457517,0,0,1.0411894,-16.732002,-21.656294)" />
  </defs>
  <sodipodi:namedview
     id="base"
     pagecolor="#ffffff"
     bordercolor="#666666"
     borderopacity="1.0"
     inkscape:pageopacity="0.0"
     inkscape:pageshadow="2"
     inkscape:zoom="0.5"
     inkscape:cx="223.31621"
     inkscape:cy="508.83686"
     inkscape:document-units="px"
     inkscape:current-layer="layer1"
     showgrid="false"
     showguides="true"
     inkscape:guide-bbox="true"
     inkscape:window-width="1366"
     inkscape:window-height="721"
     inkscape:window-x="-4"
     inkscape:window-y="-4"
     inkscape:window-maximized="1">
    <sodipodi:guide
       position="591,730.00002"
       orientation="0,1"
       id="guide3338" />
    <sodipodi:guide
       position="189,330.00001"
       orientation="0,1"
       id="guide3340" />
    <sodipodi:guide
       position="190,291.00001"
       orientation="1,0"
       id="guide3344" />
    <inkscape:grid
       type="xygrid"
       id="grid3440" />
    <sodipodi:guide
       position="590,295.00001"
       orientation="1,0"
       id="guide3411" />
  </sodipodi:namedview>
  <metadata
     id="metadata7">
    <rdf:RDF>
      <cc:Work
         rdf:about="">
        <dc:format>image/svg+xml</dc:format>
        <dc:type
           rdf:resource="http://purl.org/dc/dcmitype/StillImage" />
        <dc:title />
      </cc:Work>
    </rdf:RDF>
  </metadata>
  <g
     inkscape:label="Ebene 1"
     inkscape:groupmode="layer"
     id="layer1">
    <rect
       style="fill:none;fill-rule:evenodd;stroke:none;stroke-width:1px;stroke-linecap:butt;stroke-linejoin:miter;stroke-opacity:1"
       id="rect3336"
       width="400"
       height="400"
       x="189.14485"
       y="322.27005"
       inkscape:export-xdpi="4.9499998"
       inkscape:export-ydpi="4.9499998" />
    <g
       id="g4157"
       transform="matrix(0.87493167,0,0,0.87493167,47.756388,68.34819)">
      <path
         id="rect4174"
         d="m 229.94727,322.35938 c -22.16,0 -40,17.83998 -40,40 l 0,320.03124 c 0,22.16 17.84,40 40,40 l 6.76171,0 c -43.24527,-67.21227 -36.26037,-156.96149 20.4375,-216.90234 l -0.16406,-0.16406 8.35156,-8.35156 c 0.0692,-0.0692 0.14555,-0.12622 0.21485,-0.19532 l 3.26367,-3.26172 0.16602,0.16407 c 34.05658,-32.23195 77.80721,-48.57423 121.57226,-48.57422 45.30091,0 90.68885,17.33834 125.2168,51.86719 l 1.04687,1.04687 0.0859,0 3.45899,3.45899 c 0.32957,0.32959 0.60719,0.68994 0.93359,1.02148 l 2.82422,2.82422 -0.125,0.125 c 56.46561,60.01484 62.32123,149.88821 19.17187,216.9414 l 6.83008,0 c 22.16,0 40,-17.84 40,-40 l 0,-320.03124 c 0,-22.16001 -17.84,-40 -40,-40 l -320.04687,0 z m 160.60351,146.36523 c -35.60146,-10e-6 -71.05738,12.39118 -99.74414,37.01953 l 10.12695,10.12695 c 56.14013,-40.25215 124.98999,-37.41545 178.87891,0.35547 l 10.48047,-10.48242 C 461.60621,481.1158 426.15223,468.72461 390.55078,468.72461 Z m -1.93164,40.9668 c -27.85059,0.17933 -55.87589,10.11864 -81.33594,30.9082 l -1.09765,0.89648 -1.66407,2.09375 c -39.83271,50.13606 -43.2585,113.36492 -0.82226,165.82032 l 10.5,12.98046 151.19531,0 10.18164,-12.87695 c 16.22271,-20.51534 26.36062,-43.20937 29.77149,-66.45312 l -78.77344,0 c -6.4476,12.40183 -19.32266,20.74114 -33.82813,20.74414 a 12.50125,12.50125 0 0 1 -0.004,0 c -20.96673,-5.8e-4 -38.2299,-17.2657 -38.23047,-38.23242 -10e-4,-20.96782 17.26265,-38.2338 38.23047,-38.23438 a 12.50125,12.50125 0 0 1 0.006,0 c 13.79389,0.006 26.1905,7.55608 32.91992,19.07617 l 79.41992,0 c -3.52568,-21.68954 -13.13448,-43.11883 -29.35742,-62.98633 l -1.86328,-2.28125 -0.20899,-0.16601 c -25.94236,-20.61099 -55.39169,-31.47997 -85.0391,-31.28906 z m 122.86328,17.04101 -10.90625,10.50391 c 15.52024,21.69886 24.6007,45.28958 27.72656,69.17773 l 12.85157,0 c 1.98553,0 3.90053,0.36662 5.69922,1.00586 -3.42631,-29.0035 -15.15674,-57.16442 -35.3711,-80.6875 z m -242.19922,0.43946 c -43.50972,50.58204 -48.51179,122.22859 -15.39062,177.85742 l 18.1289,0 C 239.71685,651.15216 244.48405,587.80844 279.72852,537.48633 L 269.2832,527.17188 Z m 123.45508,85.16601 c -7.45373,0.003 -13.22692,5.77779 -13.22656,13.23242 2e-4,7.45621 5.77622,13.23417 13.23242,13.23438 6.3938,-0.003 11.73689,-4.39506 12.97656,-10.66797 a 12.50125,12.50125 0 0 1 1.02735,-3.0332 12.50125,12.50125 0 0 1 -1.23438,-2.95704 c -1.56461,-5.84229 -6.72722,-9.80559 -12.77539,-9.80859 z m 154.29102,29.65039 c -1.84939,0.67986 -3.82421,1.07227 -5.875,1.07227 l -12.66407,0 c -2.56806,21.46884 -9.79614,42.51639 -21.34375,61.96875 l 18.8379,0 c 11.65756,-19.55429 18.69238,-41.11068 21.04492,-63.04102 z"
         style="opacity:1;fill:url(#linearGradient4182);fill-opacity:1;stroke:none;stroke-width:23;stroke-linecap:butt;stroke-linejoin:round;stroke-miterlimit:4;stroke-dasharray:none;stroke-opacity:1"
         inkscape:connector-curvature="0" />
      <path
         sodipodi:nodetypes="ccccc"
         inkscape:connector-curvature="0"
         id="path4204"
         d="m 299.81317,531.45247 c 56.52704,-46.1575 127.19737,-42.61489 181.19157,0.28311 l 26.41194,-26.41196 c -64.54288,-64.54456 -169.18935,-64.54461 -233.73225,0 z"
         style="opacity:1;fill:#f7e72b;fill-opacity:1;stroke:none;stroke-width:7.19999981;stroke-linecap:butt;stroke-linejoin:miter;stroke-miterlimit:4;stroke-dasharray:none;stroke-opacity:1" />
      <path
         id="path4233"
         d="m 511.00586,509.83008 -26.12891,26.1289 c 17.92639,21.95363 28.35551,46.04043 31.89453,70.45508 l 24.38282,0 c 9.55013,0 17.625,8.08256 17.625,17.62696 l 0,1.39257 c 0,9.5444 -8.07484,17.62696 -17.625,17.62696 l -24.17188,0 c -3.42444,25.98726 -14.38153,51.31661 -32.14258,73.77734 l 47.85938,0 C 574.47675,652.76301 567.2498,566.07251 511.00586,509.83008 Z"
         style="opacity:1;fill:#ff5a35;fill-opacity:1;stroke:none;stroke-width:7.19999981;stroke-linecap:butt;stroke-linejoin:miter;stroke-miterlimit:4;stroke-dasharray:none;stroke-opacity:1"
         inkscape:connector-curvature="0" />
      <path
         inkscape:connector-curvature="0"
         id="path4235"
         d="m 268.86423,509.82958 c -56.24396,56.24249 -63.46877,142.93384 -21.69104,207.00874 l 47.34386,0 c -45.64965,-56.42749 -41.98951,-126.79037 0.7584,-180.59568 l -26.41122,-26.41306 z"
         style="opacity:1;fill:#c1d53a;fill-opacity:1;stroke:none;stroke-width:7.19999981;stroke-linecap:butt;stroke-linejoin:miter;stroke-miterlimit:4;stroke-dasharray:none;stroke-opacity:1" />
      <path
         inkscape:transform-center-y="-0.70711101"
         inkscape:transform-center-x="-65.760933"
         inkscape:connector-curvature="0"
         id="path4274"
         d="m 546.27859,624.04014 c 0,-2.84009 -2.2849,-5.12695 -5.125,-5.12695 l -123.56446,0 a 25.733126,25.733126 0 0 0 -24.8457,-19.07617 25.733126,25.733126 0 0 0 -25.73242,25.73437 25.733126,25.733126 0 0 0 25.73242,25.73243 25.733126,25.733126 0 0 0 25.24024,-20.74414 l 123.16992,0 c 2.8401,0 5.125,-2.28687 5.125,-5.12696 l 0,-1.39258 z"
         style="opacity:1;fill:#000000;fill-opacity:1;stroke:none;stroke-width:23;stroke-linecap:butt;stroke-linejoin:round;stroke-miterlimit:4;stroke-dasharray:none;stroke-opacity:1" />
    </g>
  </g>
</svg>

<?xml version="1.0" encoding="UTF-8" standalone="no"?>
<!-- Created with Inkscape (http://www.inkscape.org/) -->

<svg
   xmlns:dc="http://purl.org/dc/elements/1.1/"
   xmlns:cc="http://creativecommons.org/ns#"
   xmlns:rdf="http://www.w3.org/1999/02/22-rdf-syntax-ns#"
   xmlns:svg="http://www.w3.org/2000/svg"
   xmlns="http://www.w3.org/2000/svg"
   xmlns:xlink="http://www.w3.org/1999/xlink"
   xmlns:sodipodi="http://sodipodi.sourceforge.net/DTD/sodipodi-0.dtd"
   xmlns:inkscape="http://www.inkscape.org/namespaces/inkscape"
   width="210mm"
   height="297mm"
   viewBox="0 0 744.09448819 1052.3622047"
   id="svg2"
   version="1.1"
   inkscape:version="0.91 r13725"
   sodipodi:docname="mood-level-red.svg"
   inkscape:export-filename="C:\Users\johannes\Documents\Arbeit\RRZE\bi-con\bi-con\scalable\documents\document.png"
   inkscape:export-xdpi="4"
   inkscape:export-ydpi="4">
  <defs
     id="defs4">
    <linearGradient
       inkscape:collect="always"
       id="linearGradient4176">
      <stop
         style="stop-color:#5a6578;stop-opacity:1;"
         offset="0"
         id="stop4178" />
      <stop
         style="stop-color:#9397a2;stop-opacity:1"
         offset="1"
         id="stop4180" />
    </linearGradient>
    <linearGradient
       id="linearGradient2224">
      <stop
         id="stop2226"
         offset="0"
         style="stop-color:#7c7c7c;stop-opacity:1;" />
      <stop
         id="stop2228"
         offset="1"
         style="stop-color:#b8b8b8;stop-opacity:1;" />
    </linearGradient>
    <linearGradient
       id="linearGradient15218">
      <stop
         id="stop15220"
         offset="0"
         style="stop-color:#eeeeef;stop-opacity:1;" />
      <stop
         id="stop2736"
         offset="0.59928656"
         style="stop-color:#d3d7cf;stop-opacity:1;" />
      <stop
         id="stop2738"
         offset="0.82758623"
         style="stop-color:#ffffff;stop-opacity:1;" />
      <stop
         id="stop15222"
         offset="1"
         style="stop-color:#d3d7cf;stop-opacity:1;" />
    </linearGradient>
    <pattern
       y="0"
       x="0"
       height="6"
       width="6"
       patternUnits="userSpaceOnUse"
       id="EMFhbasepattern" />
    <linearGradient
       inkscape:collect="always"
       xlink:href="#linearGradient4176"
       id="linearGradient4182"
       x1="267.44257"
       y1="649.30225"
       x2="517.0686"
       y2="387.07214"
       gradientUnits="userSpaceOnUse"
       gradientTransform="matrix(1.0457517,0,0,1.0411894,-16.732002,-21.656294)" />
  </defs>
  <sodipodi:namedview
     id="base"
     pagecolor="#ffffff"
     bordercolor="#666666"
     borderopacity="1.0"
     inkscape:pageopacity="0.0"
     inkscape:pageshadow="2"
     inkscape:zoom="0.35355339"
     inkscape:cx="606.85462"
     inkscape:cy="506.37773"
     inkscape:document-units="px"
     inkscape:current-layer="layer1"
     showgrid="false"
     showguides="false"
     inkscape:guide-bbox="true"
     inkscape:window-width="1366"
     inkscape:window-height="721"
     inkscape:window-x="-4"
     inkscape:window-y="-4"
     inkscape:window-maximized="1">
    <sodipodi:guide
       position="591,730.00002"
       orientation="0,1"
       id="guide3338" />
    <sodipodi:guide
       position="189,330.00001"
       orientation="0,1"
       id="guide3340" />
    <sodipodi:guide
       position="190,291.00001"
       orientation="1,0"
       id="guide3344" />
    <inkscape:grid
       type="xygrid"
       id="grid3440" />
    <sodipodi:guide
       position="590,295.00001"
       orientation="1,0"
       id="guide3411" />
  </sodipodi:namedview>
  <metadata
     id="metadata7">
    <rdf:RDF>
      <cc:Work
         rdf:about="">
        <dc:format>image/svg+xml</dc:format>
        <dc:type
           rdf:resource="http://purl.org/dc/dcmitype/StillImage" />
        <dc:title />
      </cc:Work>
    </rdf:RDF>
  </metadata>
  <g
     inkscape:label="Ebene 1"
     inkscape:groupmode="layer"
     id="layer1">
    <rect
       style="fill:none;fill-rule:evenodd;stroke:none;stroke-width:1px;stroke-linecap:butt;stroke-linejoin:miter;stroke-opacity:1"
       id="rect3336"
       width="400"
       height="400"
       x="189.14485"
       y="322.27005"
       inkscape:export-xdpi="4.9499998"
       inkscape:export-ydpi="4.9499998" />
    <path
       style="opacity:1;fill:url(#linearGradient4182);fill-opacity:1;stroke:none;stroke-width:23;stroke-linecap:butt;stroke-linejoin:round;stroke-miterlimit:4;stroke-dasharray:none;stroke-opacity:1"
       d="M 229.94727 322.35938 C 207.78727 322.35938 189.94727 340.19936 189.94727 362.35938 L 189.94727 682.39062 C 189.94727 704.55062 207.78727 722.39062 229.94727 722.39062 L 236.70898 722.39062 C 193.46371 655.17835 200.44861 565.42913 257.14648 505.48828 L 256.98242 505.32422 L 265.33398 496.97266 C 265.40318 496.90346 265.47953 496.84644 265.54883 496.77734 L 268.8125 493.51562 L 268.97852 493.67969 C 303.0351 461.44774 346.78573 445.10546 390.55078 445.10547 C 435.85169 445.10547 481.23963 462.44381 515.76758 496.97266 L 516.81445 498.01953 L 516.90039 498.01953 L 520.35938 501.47852 C 520.68895 501.80811 520.96657 502.16846 521.29297 502.5 L 524.11719 505.32422 L 523.99219 505.44922 C 580.4578 565.46406 586.31342 655.33743 543.16406 722.39062 L 549.99414 722.39062 C 572.15414 722.39062 589.99414 704.55062 589.99414 682.39062 L 589.99414 362.35938 C 589.99414 340.19937 572.15414 322.35938 549.99414 322.35938 L 229.94727 322.35938 z M 390.55078 468.72461 C 354.94932 468.7246 319.4934 481.11579 290.80664 505.74414 L 300.93359 515.87109 C 357.07372 475.61894 425.92358 478.45564 479.8125 516.22656 L 490.29297 505.74414 C 461.60621 481.1158 426.15223 468.72461 390.55078 468.72461 z M 388.61914 509.69141 C 360.76855 509.87074 332.74325 519.81005 307.2832 540.59961 L 306.18555 541.49609 L 304.52148 543.58984 C 264.68877 593.7259 261.26298 656.95476 303.69922 709.41016 L 314.19922 722.39062 L 465.39453 722.39062 L 475.57617 709.51367 C 491.79888 688.99833 501.93679 666.3043 505.34766 643.06055 L 426.57422 643.06055 C 420.12662 655.46238 407.25156 663.80169 392.74609 663.80469 A 12.50125 12.50125 0 0 1 392.74219 663.80469 C 371.77546 663.80411 354.51229 646.53899 354.51172 625.57227 C 354.51071 604.60445 371.77437 587.33847 392.74219 587.33789 A 12.50125 12.50125 0 0 1 392.74805 587.33789 C 406.54194 587.34404 418.93855 594.89397 425.66797 606.41406 L 505.08789 606.41406 C 501.56221 584.72452 491.95341 563.29523 475.73047 543.42773 L 473.86719 541.14648 L 473.6582 540.98047 C 447.71588 520.36948 418.26655 509.5005 388.61914 509.69141 z M 511.48242 526.73242 L 500.57617 537.23633 C 516.09641 558.93519 525.17687 582.52591 528.30273 606.41406 L 541.1543 606.41406 C 543.13983 606.41406 545.05483 606.78068 546.85352 607.41992 C 543.42721 578.41642 531.69678 550.2555 511.48242 526.73242 z M 269.2832 527.17188 C 225.77348 577.75392 220.77141 649.40047 253.89258 705.0293 L 272.02148 705.0293 C 239.71685 651.15216 244.48405 587.80844 279.72852 537.48633 L 269.2832 527.17188 z M 392.73828 612.33789 C 385.28455 612.34119 379.51136 618.11568 379.51172 625.57031 C 379.51192 633.02652 385.28794 638.80448 392.74414 638.80469 C 399.13794 638.80171 404.48103 634.40963 405.7207 628.13672 A 12.50125 12.50125 0 0 1 406.74805 625.10352 A 12.50125 12.50125 0 0 1 405.51367 622.14648 C 403.94906 616.30419 398.78645 612.34089 392.73828 612.33789 z M 547.0293 641.98828 C 545.17991 642.66814 543.20509 643.06055 541.1543 643.06055 L 528.49023 643.06055 C 525.92217 664.52939 518.69409 685.57694 507.14648 705.0293 L 525.98438 705.0293 C 537.64194 685.47501 544.67676 663.91862 547.0293 641.98828 z "
       id="rect4174" />
    <path
       style="opacity:1;fill:#f7e72b;fill-opacity:1;stroke:none;stroke-width:7.19999981;stroke-linecap:butt;stroke-linejoin:miter;stroke-miterlimit:4;stroke-dasharray:none;stroke-opacity:1"
       d="m 299.81317,531.45247 c 56.52704,-46.1575 127.19737,-42.61489 181.19157,0.28311 l 26.41194,-26.41196 c -64.54288,-64.54456 -169.18935,-64.54461 -233.73225,0 z"
       id="path4204"
       inkscape:connector-curvature="0"
       sodipodi:nodetypes="ccccc" />
    <path
       style="opacity:1;fill:#ff5a35;fill-opacity:1;stroke:none;stroke-width:7.19999981;stroke-linecap:butt;stroke-linejoin:miter;stroke-miterlimit:4;stroke-dasharray:none;stroke-opacity:1"
       d="M 511.00586 509.83008 L 484.87695 535.95898 C 502.80334 557.91261 513.23246 581.99941 516.77148 606.41406 L 541.1543 606.41406 C 550.70443 606.41406 558.7793 614.49662 558.7793 624.04102 L 558.7793 625.43359 C 558.7793 634.97799 550.70446 643.06055 541.1543 643.06055 L 516.98242 643.06055 C 513.55798 669.04781 502.60089 694.37716 484.83984 716.83789 L 532.69922 716.83789 C 574.47675 652.76301 567.2498 566.07251 511.00586 509.83008 z "
       id="path4233" />
    <path
       style="opacity:1;fill:#c1d53a;fill-opacity:1;stroke:none;stroke-width:7.19999981;stroke-linecap:butt;stroke-linejoin:miter;stroke-miterlimit:4;stroke-dasharray:none;stroke-opacity:1"
       d="m 268.86423,509.82958 c -56.24396,56.24249 -63.46877,142.93384 -21.69104,207.00874 l 47.34386,0 c -45.64965,-56.42749 -41.98951,-126.79037 0.7584,-180.59568 l -26.41122,-26.41306 z"
       id="path4235"
       inkscape:connector-curvature="0" />
    <path
       style="opacity:1;fill:#000000;fill-opacity:1;stroke:none;stroke-width:23;stroke-linecap:butt;stroke-linejoin:round;stroke-miterlimit:4;stroke-dasharray:none;stroke-opacity:1"
       d="m 546.27859,624.04014 c 0,-2.84009 -2.2849,-5.12695 -5.125,-5.12695 l -123.56446,0 a 25.733126,25.733126 0 0 0 -24.8457,-19.07617 25.733126,25.733126 0 0 0 -25.73242,25.73437 25.733126,25.733126 0 0 0 25.73242,25.73243 25.733126,25.733126 0 0 0 25.24024,-20.74414 l 123.16992,0 c 2.8401,0 5.125,-2.28687 5.125,-5.12696 l 0,-1.39258 z"
       id="path4274"
       inkscape:connector-curvature="0"
       inkscape:transform-center-x="-65.760933"
       inkscape:transform-center-y="-0.70711101" />
  </g>
</svg>
